public/assets/kwai.svg

<svg xmlns="http://www.w3.org/2000/svg" viewBox="0 0 1000 296.4" style="enable-background:new 0 0 1000 296.4" xml:space="preserve"><path d="M56.6-156.6H18c-8.3 0-15-6.7-15-15v-38.6c0-8.3 6.7-15 15-15h38.5c8.3 0 15 6.7 15 15v38.6c0 8.3-6.7 15-14.9 15" style="fill-rule:evenodd;clip-rule:evenodd;fill:#ff7705" transform="matrix(4.31842 0 0 4.31842 -13.153 972.606)"/><path d="M26-167.5c-.8 0-2.7-.4-4.6-.9-1.9-.5-3.2-1.2-3.2-1.2-.7-.4-1-1-1.1-1.6 0 0-.2-2-.2-5.8 0-2.9.1-4.5.2-4.9.1-.5.3-.9 1-.9s1.5 0 3.6.4c2.5.5 3.7.9 4.3 1.1.5.2 1.1.6 1.2 1.4 0 0 .3 2.1.3 5.3 0 2.6-.2 5.2-.3 6-.1.7-.4 1.1-1.2 1.1zm11.3-9c0-.5-.2-.9-.5-1.2l-6.5-6.4c-.7-.8-1.6-1.3-2.7-1.5 0 0-2.4-.6-6.1-1.2-3.6-.6-4.6-.5-4.6-.5-3.2 0-3.3 3.4-3.4 3.8-.1.8-.3 3-.3 6.1 0 3.6.2 6.1.3 7.7.3 2.3 2.1 3.4 2.9 3.9.2.1 2.5 1.1 4.7 1.8 1.5.5 4 1.2 5.1 1.3.4.1 2.6.4 3.7-1l6.9-8.9c.3-.4.4-.6.4-1.2l.1-2.7zm15.1-13c-1-.1-2-.1-2.9-.1L34-188.1s-1 .2-1.6.9c-.5.6-.5 1.1-.5 1.1l.4.4 6.1 6.2c.7.7 1.1 1.3 1.1 2.3v3.5c0 .6-.1 1.2-.4 1.6l-3.3 4.5 3.3 1.3c1.3.4 2.4.4 3.7.2l14.2-3.3s2.6-.7 2.6-3.1v-8.7c0-.2-.1-.3-.3-.3l-9.1 1.8c-.3.1-.6.4-.6.7v4.2c0 .3.3.5.6.4l2.8-.6c.1 0 .3.1.3.3v1.4c0 .3-.2.5-.5.5l-3.2.7s-2.2.6-2.2-1.8v-5.4c0-2.3 1.7-2.6 1.7-2.6l10-1.9c.3 0 .5-.3.5-.5v-2.2c0-2.4-2.3-2.6-2.3-2.6l-4.9-.4zm-18.6-22.7c3.7.2 6.5 3.7 6.3 8-.2 4.3-3.4 7.7-7 7.6-3.7-.2-6.4-3.7-6.2-8 .2-4.4 3.3-7.8 6.9-7.6zm15 10c.2-2.9 2.2-5.2 4.7-5.1 2.3.1 4.2 2.6 4.1 5.4-.2 2.9-2.3 5.2-4.7 5.1-2.4-.1-4.2-2.5-4.1-5.4zm12.5.4c0-5.8-4.3-10.4-9.6-10.4-3.1 0-5.9 1.6-7.7 4.1-1.4-6.2-6.5-10.7-12.7-10.7-7.4 0-13.3 6.4-13.2 14.2 0 7.9 6 14.4 13.2 14.3.4 0 20.5-1.4 20.4-1.4 5.7-.5 9.6-4.4 9.6-10.1z" style="fill-rule:evenodd;clip-rule:evenodd;fill:#fff" transform="matrix(4.31842 0 0 4.31842 -13.153 972.606)"/><g><g transform="matrix(4.31842 0 0 4.31842 240.58 995.885)"><linearGradient id="a" gradientUnits="userSpaceOnUse" x1="83.454" y1="-10.383" x2="82.473" y2="23.125" gradientTransform="matrix(3.7702 0 0 -4.9463 -171.004 -220.774)"><stop offset="0" style="stop-color:#ff6000"/><stop offset="1" style="stop-color:#ff8d0a"/></linearGradient><path d="M132.1-206.6h.1c2.7-.5 6.6-1.1 11.1-1.1 9.4 0 14.5 4.2 14.5 12.7v23.9c0 .7-.6 1.4-1.3 1.4h-5.6c-.2 0-.7-.1-1-.4-.3-.2-.4-.7-.4-.9v-.5c-.8.9-2.5 2.2-7.3 2.3-5.1.1-7.6-1.3-8.8-2.2-1.5-1.1-2.7-2.5-3.6-4.1-.5-1-.9-2.1-1.1-4.1-.2-2.2.2-4.3.8-5.7 1.7-4.1 6-6.4 13.6-6.9 2.3-.1 6.1-.2 6.1-.2v-2.5c0-4.3-1.8-4.9-5.7-4.9-5.6 0-10.6 1-11.5 1.2-.4 0-.6-.1-.7-.2-.2-.2-.3-.5-.3-.6v-5.6c0-.6.5-1.1 1.1-1.3-.1-.3-.1-.3 0-.3zm5 25.6c.2-2.4 2.4-3.2 2.9-3.3 1.1-.4 2.6-.7 4.5-.8 2.3-.2 4.5-.1 4.5-.1v7.6c-1.9.9-3.4 1.3-5.7 1.4h-.7c-2.1 0-5.1-.6-5.6-4.3.1-.3.1-.4.1-.5z" style="fill-rule:evenodd;clip-rule:evenodd;fill:url(#a)"/><linearGradient id="b" gradientUnits="userSpaceOnUse" x1="97.457" y1="-29.737" x2="96.919" y2="-11.338" gradientTransform="matrix(2.1647 0 0 -8.6151 -39.606 -426.12)"><stop offset="0" style="stop-color:#ff6000"/><stop offset="1" style="stop-color:#ff8d0a"/></linearGradient><path d="M168-206.6c-.8 0-1.3.7-1.4 1.4v34c0 .2.1.5.4.9s.8.4 1 .4h6.4c.9 0 1.3-.6 1.3-1.4v-33.8c0-.8-.6-1.4-1.4-1.4H168z" style="fill-rule:evenodd;clip-rule:evenodd;fill:url(#b)"/><linearGradient id="c" gradientUnits="userSpaceOnUse" x1="58.556" y1="-9.836" x2="57.187" y2="36.913" gradientTransform="matrix(3.8065 0 0 -4.8991 -173.976 -218.133)"><stop offset=".021" style="stop-color:#ff6000"/><stop offset="1" style="stop-color:#ff8d0a"/></linearGradient><path d="M56.3-222.9c-.5 0-.9.2-1.2.5l-16 20.3c-.4.5-1.4.1-1.4-.7v-18.6c0-.5-.2-.8-.4-1.1-.2-.2-.5-.5-1-.5h-6.4c-.9 0-1.5.7-1.5 1.5v50.1c0 .5.2.8.4 1 .3.3.7.4 1 .4h6.4c1 0 1.5-.6 1.5-1.4V-193c0-1.7 1.3-1.4 1.8-.8l19.3 23c.4.5 1 .8 1.7.8h8.6c.2 0 .3-.1.4-.3.1-.2.1-.5-.1-.6l-22-25.8c-.3-.3-.4-.7-.2-1l18.3-24.5c.1-.1.2-.3 0-.6-.2-.2-.3-.2-.4-.2l-8.8.1z" style="fill-rule:evenodd;clip-rule:evenodd;fill:url(#c)"/><linearGradient id="d" gradientUnits="userSpaceOnUse" x1="90.111" y1="-6.785" x2="90.111" y2="43.918" gradientTransform="matrix(4.0727 0 0 -4.579 -195.758 -200.213)"><stop offset="0" style="stop-color:#ff6000"/><stop offset="1" style="stop-color:#ff8d0a"/></linearGradient><path d="M168-222.9c-.9 0-1.4.6-1.4 1.3V-214c0 .8.6 1.4 1.4 1.4h6.3c.9 0 1.5-.6 1.5-1.4v-7.5c0-.8-.6-1.4-1.4-1.4H168z" style="fill-rule:evenodd;clip-rule:evenodd;fill:url(#d)"/><linearGradient id="e" gradientUnits="userSpaceOnUse" x1="74.036" y1="8.74" x2="72.707" y2="54.15" gradientTransform="matrix(5.3395 0 0 -3.4926 -299.434 -139.407)"><stop offset="0" style="stop-color:#ff6000"/><stop offset="1" style="stop-color:#ff8d0a"/></linearGradient><path d="M107.5-183.5c-.2.7-1.2.7-1.5 0l-8.1-22.2c-.2-.4-.7-.8-1.3-.8h-4.2c-.7 0-1.2.4-1.4.9l-8.1 22.1c-.2.7-1.4.7-1.5 0l-6.1-21.3c0-.1-.1-.9-.6-1.3-.5-.3-.6-.3-1.2-.4h-5.6c-.9 0-1.7.7-1.5 1.7 0 .1 9.2 33.1 9.4 33.8.1.4.2.7.5.9s.6.4 1 .4h8.9c.7 0 1.2-.3 1.4-.8l1.4-3.2 5.1-13.6c.3-.6 1.2-.7 1.4 0l6.1 16.6c.1.3.2.5.5.7.2.2.6.3.9.3h9.4c.8 0 1.4-.4 1.5-1l.4-1.6s.2-.9.7-2.6l7.6-29.5c.2-.9-.2-1.8-1.1-2H115c-.7 0-1.2.4-1.4 1-.2.4-5.9 21.2-6.1 21.9z" style="fill-rule:evenodd;clip-rule:evenodd;fill:url(#e)"/></g></g></svg>

<?xml version="1.0" encoding="UTF-8" standalone="no"?>
<!DOCTYPE svg PUBLIC "-//W3C//DTD SVG 1.1//EN" "http://www.w3.org/Graphics/SVG/1.1/DTD/svg11.dtd">
<svg width="100%" height="100%" viewBox="0 0 300 296" version="1.1" xmlns="http://www.w3.org/2000/svg" xmlns:xlink="http://www.w3.org/1999/xlink" xml:space="preserve" xmlns:serif="http://www.serif.com/" style="fill-rule:evenodd;clip-rule:evenodd;stroke-linejoin:round;stroke-miterlimit:2;">
    <g transform="matrix(4.31842,0,0,4.31842,-13.153,972.606)">
        <path d="M56.6,-156.6L18,-156.6C9.7,-156.6 3,-163.3 3,-171.6L3,-210.2C3,-218.5 9.7,-225.2 18,-225.2L56.5,-225.2C64.8,-225.2 71.5,-218.5 71.5,-210.2L71.5,-171.6C71.5,-163.3 64.8,-156.6 56.6,-156.6" style="fill:rgb(255,119,5);"/>
    </g>
    <g transform="matrix(4.31842,0,0,4.31842,-13.153,972.606)">
        <path d="M26,-167.5C25.2,-167.5 23.3,-167.9 21.4,-168.4C19.5,-168.9 18.2,-169.6 18.2,-169.6C17.5,-170 17.2,-170.6 17.1,-171.2C17.1,-171.2 16.9,-173.2 16.9,-177C16.9,-179.9 17,-181.5 17.1,-181.9C17.2,-182.4 17.4,-182.8 18.1,-182.8C18.8,-182.8 19.6,-182.8 21.7,-182.4C24.2,-181.9 25.4,-181.5 26,-181.3C26.5,-181.1 27.1,-180.7 27.2,-179.9C27.2,-179.9 27.5,-177.8 27.5,-174.6C27.5,-172 27.3,-169.4 27.2,-168.6C27.1,-167.9 26.8,-167.5 26,-167.5ZM37.3,-176.5C37.3,-177 37.1,-177.4 36.8,-177.7L30.3,-184.1C29.6,-184.9 28.7,-185.4 27.6,-185.6C27.6,-185.6 25.2,-186.2 21.5,-186.8C17.9,-187.4 16.9,-187.3 16.9,-187.3C13.7,-187.3 13.6,-183.9 13.5,-183.5C13.4,-182.7 13.2,-180.5 13.2,-177.4C13.2,-173.8 13.4,-171.3 13.5,-169.7C13.8,-167.4 15.6,-166.3 16.4,-165.8C16.6,-165.7 18.9,-164.7 21.1,-164C22.6,-163.5 25.1,-162.8 26.2,-162.7C26.6,-162.6 28.8,-162.3 29.9,-163.7L36.8,-172.6C37.1,-173 37.2,-173.2 37.2,-173.8L37.3,-176.5ZM52.4,-189.5C51.4,-189.6 50.4,-189.6 49.5,-189.6L34,-188.1C34,-188.1 33,-187.9 32.4,-187.2C31.9,-186.6 31.9,-186.1 31.9,-186.1L32.3,-185.7L38.4,-179.5C39.1,-178.8 39.5,-178.2 39.5,-177.2L39.5,-173.7C39.5,-173.1 39.4,-172.5 39.1,-172.1L35.8,-167.6L39.1,-166.3C40.4,-165.9 41.5,-165.9 42.8,-166.1L57,-169.4C57,-169.4 59.6,-170.1 59.6,-172.5L59.6,-181.2C59.6,-181.4 59.5,-181.5 59.3,-181.5L50.2,-179.7C49.9,-179.6 49.6,-179.3 49.6,-179L49.6,-174.8C49.6,-174.5 49.9,-174.3 50.2,-174.4L53,-175C53.1,-175 53.3,-174.9 53.3,-174.7L53.3,-173.3C53.3,-173 53.1,-172.8 52.8,-172.8L49.6,-172.1C49.6,-172.1 47.4,-171.5 47.4,-173.9L47.4,-179.3C47.4,-181.6 49.1,-181.9 49.1,-181.9L59.1,-183.8C59.4,-183.8 59.6,-184.1 59.6,-184.3L59.6,-186.5C59.6,-188.9 57.3,-189.1 57.3,-189.1L52.4,-189.5ZM33.8,-212.2C37.5,-212 40.3,-208.5 40.1,-204.2C39.9,-199.9 36.7,-196.5 33.1,-196.6C29.4,-196.8 26.7,-200.3 26.9,-204.6C27.1,-209 30.2,-212.4 33.8,-212.2ZM48.8,-202.2C49,-205.1 51,-207.4 53.5,-207.3C55.8,-207.2 57.7,-204.7 57.6,-201.9C57.4,-199 55.3,-196.7 52.9,-196.8C50.5,-196.9 48.7,-199.3 48.8,-202.2ZM61.3,-201.8C61.3,-207.6 57,-212.2 51.7,-212.2C48.6,-212.2 45.8,-210.6 44,-208.1C42.6,-214.3 37.5,-218.8 31.3,-218.8C23.9,-218.8 18,-212.4 18.1,-204.6C18.1,-196.7 24.1,-190.2 31.3,-190.3C31.7,-190.3 51.8,-191.7 51.7,-191.7C57.4,-192.2 61.3,-196.1 61.3,-201.8Z" style="fill:white;"/>
    </g>
</svg>
